src/lib/packages/icons/src/assets/filled/shuffle.svg

<svg width="24" height="24" viewBox="0 0 24 24" fill="none" xmlns="http://www.w3.org/2000/svg">
<path d="M21.923 17.3821C21.872 17.5051 21.7991 17.615 21.7061 17.708L19.707 19.7071C19.512 19.9021 19.256 20 19 20C18.744 20 18.488 19.9021 18.293 19.7071C17.902 19.3161 17.902 18.684 18.293 18.293L18.5861 18H17.441C16.219 18 15.082 17.4531 14.318 16.4991L8.11902 8.75101C7.73802 8.27401 7.16898 8.00101 6.55798 8.00101H3C2.447 8.00101 2 7.55301 2 7.00101C2 6.44901 2.447 6.00101 3 6.00101H6.55896C7.78096 6.00101 8.91801 6.54799 9.68201 7.50199L15.881 15.25C16.262 15.727 16.831 16 17.442 16H18.587L18.2939 15.7071C17.9029 15.3161 17.9029 14.684 18.2939 14.293C18.6849 13.902 19.317 13.902 19.708 14.293L21.707 16.292C21.8 16.385 21.8729 16.495 21.924 16.618C22.024 16.862 22.024 17.1381 21.923 17.3821ZM13.999 10.5C14.293 10.5 14.583 10.372 14.78 10.125L15.881 8.75004C16.262 8.27304 16.831 8.00004 17.442 8.00004H18.587L18.2939 8.29301C17.9029 8.68401 17.9029 9.31607 18.2939 9.70707C18.4889 9.90207 18.745 10 19.001 10C19.257 10 19.513 9.90207 19.708 9.70707L21.707 7.70805C21.8 7.61505 21.8729 7.50512 21.924 7.38212C22.025 7.13812 22.025 6.86196 21.924 6.61796C21.8729 6.49496 21.8 6.38503 21.707 6.29203L19.708 4.29301C19.317 3.90201 18.6849 3.90201 18.2939 4.29301C17.9029 4.68401 17.9029 5.31607 18.2939 5.70707L18.587 6.00004H17.442C16.22 6.00004 15.0829 6.54701 14.3199 7.50101L13.22 8.87504C12.874 9.30604 12.945 9.93604 13.375 10.281C13.56 10.428 13.78 10.5 13.999 10.5ZM9.21997 13.875L8.11902 15.25C7.73802 15.727 7.16898 16 6.55798 16H3C2.447 16 2 16.448 2 17C2 17.552 2.447 18 3 18H6.55896C7.78096 18 8.91803 17.4531 9.68103 16.4991L10.781 15.125C11.127 14.694 11.056 14.064 10.626 13.719C10.192 13.375 9.56397 13.445 9.21997 13.875Z" fill="currentColor"/>
</svg>

<svg xmlns="http://www.w3.org/2000/svg" width="24" height="24" fill="none"><path fill="currentColor" d="M21.923 17.382a1 1 0 0 1-.217.326l-1.999 2a.997.997 0 0 1-1.414 0 .999.999 0 0 1 0-1.415l.293-.293h-1.145a3.98 3.98 0 0 1-3.123-1.5L8.119 8.75A1.987 1.987 0 0 0 6.558 8H3a1 1 0 1 1 0-2h3.559a3.98 3.98 0 0 1 3.123 1.501l6.199 7.748c.381.477.95.75 1.561.75h1.145l-.293-.293a.999.999 0 1 1 1.414-1.414l1.999 1.999a1.002 1.002 0 0 1 .216 1.09ZM13.999 10.5a.995.995 0 0 0 .781-.375l1.101-1.375c.381-.477.95-.75 1.561-.75h1.145l-.293.293a.999.999 0 1 0 1.414 1.414l1.999-1.999a1.002 1.002 0 0 0 0-1.416l-1.999-1.999a.999.999 0 1 0-1.414 1.414l.293.293h-1.145c-1.222 0-2.36.547-3.122 1.501l-1.1 1.374a1 1 0 0 0 .779 1.625ZM9.22 13.875 8.119 15.25c-.381.477-.95.75-1.561.75H3a1 1 0 1 0 0 2h3.559a3.979 3.979 0 0 0 3.122-1.5l1.1-1.375a1 1 0 0 0-1.561-1.25Z"/></svg>
